X:144
T:New May Moon. Le4.144
Q:3/8=100
L:1/8
B:L.Leadley MS#4 c1850
Z:vmp.Mike Hicken 2016 www.village-music-project.org.uk
N:Tune 79 in "The Fiddler of Helperby"
N: In the original the key is C but has been changed to D.
N: * In the original this note is shown in the previous bar. It has been moved here to give the correct repeats.
M:6/8
K:D
A|d2A d2A|B2A  ABc|d2d ede|f2d def|g2g f2f|efd cBA|{c}BAG FGA|B2A A2 :|
|:"*"a|b2b afd|b2b a2a|b2b (afd)|(cee) e2a|b2b a2a|g2g {g}fed|{c}BAG FGA|B2A A2 :|

